apps/scalable/okteta.svg

<svg xmlns="http://www.w3.org/2000/svg" style="isolation:isolate" width="256" height="256"><defs><filter id="a" width="270.648" height="254.338" x="-7.32" y="2.95" filterUnits="userSpaceOnUse"><feGaussianBlur xmlns="http://www.w3.org/2000/svg" in="SourceGraphic" stdDeviation="4.294"/><feOffset xmlns="http://www.w3.org/2000/svg" dy="4" result="pf_100_offsetBlur"/><feFlood xmlns="http://www.w3.org/2000/svg" flood-opacity=".4"/><feComposite xmlns="http://www.w3.org/2000/svg" in2="pf_100_offsetBlur" operator="in" result="pf_100_dropShadow"/><feBlend xmlns="http://www.w3.org/2000/svg" in="SourceGraphic" in2="pf_100_dropShadow"/></filter></defs><path fill="#E6E6E6" d="M165.685 11.947c74.055 0 84.639 10.557 84.639 84.544v59.251c0 73.986-10.584 84.543-84.639 84.543h-75.37c-74.055 0-84.639-10.557-84.639-84.543V96.491c0-73.987 10.584-84.544 84.639-84.544h75.37z" filter="url(#a)"/><path d="M250.324 163.827l-77.398 76.458" opacity=".4"/><g opacity=".4"><linearGradient id="b" x1=".517" x2=".517" y2="1"><stop offset="0%" stop-color="#fff"/><stop offset="12.5%" stop-opacity=".098" stop-color="#fff"/><stop offset="92.5%" stop-opacity=".098"/><stop offset="100%" stop-opacity=".498"/></linearGradient><path fill="none" stroke="url(#b)" stroke-linecap="round" stroke-linejoin="round" stroke-width="4.077" d="M165.685 11.947c74.055 0 84.639 10.557 84.639 84.544v59.251c0 73.986-10.584 84.543-84.639 84.543h-75.37c-74.055 0-84.639-10.557-84.639-84.543V96.491c0-73.987 10.584-84.544 84.639-84.544h75.37z" vector-effect="non-scaling-stroke"/></g><path fill="#FFF" d="M128 11.947v228.338h37.685c74.055 0 84.639-10.557 84.639-84.543V96.491c0-73.987-10.584-84.544-84.639-84.544H128z" opacity=".2"/><g fill="none" stroke="#999" stroke-width="4.215" stroke-linecap="round"><path d="M49.754 49.978h7.597a4.634 4.634 0 0 1 4.632 4.631v20.242a4.634 4.634 0 0 1-4.632 4.631h-7.597a4.633 4.633 0 0 1-4.631-4.631V54.609a4.633 4.633 0 0 1 4.631-4.631zM108.764 49.978h7.597a4.633 4.633 0 0 1 4.631 4.631v20.242a4.633 4.633 0 0 1-4.631 4.631h-7.597a4.634 4.634 0 0 1-4.632-4.631V54.609a4.634 4.634 0 0 1 4.632-4.631zM138.269 49.978h7.596a4.633 4.633 0 0 1 4.632 4.631v20.242a4.633 4.633 0 0 1-4.632 4.631h-7.596a4.634 4.634 0 0 1-4.632-4.631V54.609a4.634 4.634 0 0 1 4.632-4.631z" stroke-linejoin="round"/><path fill-rule="evenodd" d="M74.627 49.978h8.43v29.504" vector-effect="non-scaling-stroke"/><path fill-rule="evenodd" stroke-linejoin="round" d="M74.627 79.482h16.86v-8.43" vector-effect="non-scaling-stroke"/><path d="M49.754 92.127h7.597a4.635 4.635 0 0 1 4.632 4.632v20.242a4.634 4.634 0 0 1-4.632 4.631h-7.597a4.633 4.633 0 0 1-4.631-4.631V96.759a4.634 4.634 0 0 1 4.631-4.632z" stroke-linejoin="round"/><path fill-rule="evenodd" d="M104.132 92.127h8.43v29.505" vector-effect="non-scaling-stroke"/><path fill-rule="evenodd" stroke-linejoin="round" d="M104.132 121.632h16.86v-8.43" vector-effect="non-scaling-stroke"/><path d="M79.259 92.127h7.597a4.634 4.634 0 0 1 4.631 4.632v20.242a4.633 4.633 0 0 1-4.631 4.631h-7.597a4.634 4.634 0 0 1-4.632-4.631V96.759a4.635 4.635 0 0 1 4.632-4.632zM138.269 92.127h7.596a4.634 4.634 0 0 1 4.632 4.632v20.242a4.633 4.633 0 0 1-4.632 4.631h-7.596a4.634 4.634 0 0 1-4.632-4.631V96.759a4.635 4.635 0 0 1 4.632-4.632zM79.259 134.277h7.597a4.633 4.633 0 0 1 4.631 4.632v20.241a4.633 4.633 0 0 1-4.631 4.632h-7.597a4.634 4.634 0 0 1-4.632-4.632v-20.241a4.634 4.634 0 0 1 4.632-4.632zM108.764 134.277h7.597a4.633 4.633 0 0 1 4.631 4.632v20.241a4.633 4.633 0 0 1-4.631 4.632h-7.597a4.634 4.634 0 0 1-4.632-4.632v-20.241a4.634 4.634 0 0 1 4.632-4.632zM49.754 176.427h7.597a4.634 4.634 0 0 1 4.632 4.632V201.3a4.635 4.635 0 0 1-4.632 4.632h-7.597a4.634 4.634 0 0 1-4.631-4.632v-20.241a4.633 4.633 0 0 1 4.631-4.632zM138.269 176.427h7.596a4.634 4.634 0 0 1 4.632 4.632V201.3a4.634 4.634 0 0 1-4.632 4.632h-7.596a4.635 4.635 0 0 1-4.632-4.632v-20.241a4.634 4.634 0 0 1 4.632-4.632z" stroke-linejoin="round"/><path fill-rule="evenodd" d="M74.627 176.427h8.43v29.505" vector-effect="non-scaling-stroke"/><path fill-rule="evenodd" stroke-linejoin="round" d="M74.627 205.932h16.86v-8.43" vector-effect="non-scaling-stroke"/><path fill-rule="evenodd" d="M45.123 134.277h8.43v29.505" vector-effect="non-scaling-stroke"/><path fill-rule="evenodd" stroke-linejoin="round" d="M45.123 163.782h16.86v-8.43" vector-effect="non-scaling-stroke"/><path fill-rule="evenodd" d="M133.637 134.277h8.43v29.505" vector-effect="non-scaling-stroke"/><path fill-rule="evenodd" stroke-linejoin="round" d="M133.637 163.782h16.86v-8.43" vector-effect="non-scaling-stroke"/><path fill-rule="evenodd" d="M104.132 176.427h8.43v29.505" vector-effect="non-scaling-stroke"/><path fill-rule="evenodd" stroke-linejoin="round" d="M104.132 205.932h16.86v-8.43" vector-effect="non-scaling-stroke"/><path fill-rule="evenodd" d="M163.142 49.978h8.43v29.504" vector-effect="non-scaling-stroke"/><path fill-rule="evenodd" stroke-linejoin="round" d="M163.142 79.482h16.86v-8.43" vector-effect="non-scaling-stroke"/><path d="M167.774 92.127h7.596a4.634 4.634 0 0 1 4.632 4.632v20.242a4.633 4.633 0 0 1-4.632 4.631h-7.596a4.633 4.633 0 0 1-4.632-4.631V96.759a4.634 4.634 0 0 1 4.632-4.632zM167.774 134.277h7.596a4.634 4.634 0 0 1 4.632 4.632v20.241a4.634 4.634 0 0 1-4.632 4.632h-7.596a4.634 4.634 0 0 1-4.632-4.632v-20.241a4.634 4.634 0 0 1 4.632-4.632zM167.774 176.427h7.596a4.634 4.634 0 0 1 4.632 4.632V201.3a4.634 4.634 0 0 1-4.632 4.632h-7.596a4.634 4.634 0 0 1-4.632-4.632v-20.241a4.634 4.634 0 0 1 4.632-4.632zM198.318 49.977h7.597a4.633 4.633 0 0 1 4.631 4.631V74.85a4.634 4.634 0 0 1-4.631 4.632h-7.597a4.635 4.635 0 0 1-4.632-4.632V54.608a4.634 4.634 0 0 1 4.632-4.631z" stroke-linejoin="round"/><path fill-rule="evenodd" d="M194.017 92.127h8.43v29.505" vector-effect="non-scaling-stroke"/><path fill-rule="evenodd" stroke-linejoin="round" d="M194.017 121.632h16.86v-8.43" vector-effect="non-scaling-stroke"/><path d="M198.318 134.368h7.597a4.633 4.633 0 0 1 4.631 4.632v20.241a4.633 4.633 0 0 1-4.631 4.632h-7.597a4.634 4.634 0 0 1-4.632-4.632V139a4.634 4.634 0 0 1 4.632-4.632z" stroke-linejoin="round"/><path fill-rule="evenodd" d="M193.798 176.518h8.43v29.505" vector-effect="non-scaling-stroke"/><path fill-rule="evenodd" stroke-linejoin="round" d="M193.798 206.023h16.86v-8.43" vector-effect="non-scaling-stroke"/></g><path fill="#FEE1C2" d="M126.718 184.411l-51.725 24.138 24.138-51.725 5.173-5.173 27.587 27.587-5.173 5.173z"/><path fill="#5D5D5D" d="M82.671 192.089l-7.678 16.46 16.46-7.678s1.628-.958.774-1.812c-.854-.855-3.425.023-3.425.023s1.709-2.602-.006-4.317c-1.715-1.715-4.317-.006-4.317-.006s.859-2.589-.003-3.451c-.862-.862-1.805.781-1.805.781z"/><linearGradient id="c" x2="1" y1="1.22" y2="1.22" gradientTransform="rotate(45 8.626 259.528) scale(39.014 127.784)" gradientUnits="userSpaceOnUse"><stop offset="0%" stop-color="#5884f4"/><stop offset="27.8%" stop-color="#5884f4"/><stop offset="27.8%" stop-color="#2f5fdd"/><stop offset="70.735%" stop-color="#2f5fdd"/><stop offset="70.936%" stop-color="#234db8"/><stop offset="100%" stop-color="#234db8"/></linearGradient><path fill="url(#c)" d="M99.131 156.824c3.449-3.448 9.483 6.035 4.311 11.207 8.621-8.621 20.69 3.449 12.069 12.069 5.173-5.172 14.656.863 11.207 4.311l86.909-86.909-27.587-27.587-86.909 86.909z"/></svg>

<svg xmlns="http://www.w3.org/2000/svg" style="isolation:isolate" width="256" height="256" viewBox="0 0 256 256">
 <defs>
  <filter id="qgF7GxrbVG6fEkaVIR7SPW7wY6AtPzT8" width="270.648" height="254.338" x="-7.32" y="2.95" filterUnits="userSpaceOnUse">
   <feGaussianBlur xmlns="http://www.w3.org/2000/svg" in="SourceGraphic" stdDeviation="4.294"/>
   <feOffset xmlns="http://www.w3.org/2000/svg" dx="0" dy="4" result="pf_100_offsetBlur"/>
   <feFlood xmlns="http://www.w3.org/2000/svg" flood-opacity=".4"/>
   <feComposite xmlns="http://www.w3.org/2000/svg" in2="pf_100_offsetBlur" operator="in" result="pf_100_dropShadow"/>
   <feBlend xmlns="http://www.w3.org/2000/svg" in="SourceGraphic" in2="pf_100_dropShadow" mode="normal"/>
  </filter>
 </defs>
 <g filter="url(#qgF7GxrbVG6fEkaVIR7SPW7wY6AtPzT8)">
  <path fill="#E6E6E6" d="M 165.685 11.947 C 239.74 11.947 250.324 22.504 250.324 96.491 L 250.324 155.742 C 250.324 229.728 239.74 240.285 165.685 240.285 L 90.315 240.285 C 16.26 240.285 5.676 229.728 5.676 155.742 L 5.676 96.491 C 5.676 22.504 16.26 11.947 90.315 11.947 L 165.685 11.947 Z"/>
 </g>
 <g opacity=".4">
  <line x1="250.324" x2="172.926" y1="163.827" y2="240.285"/>
 </g>
 <g opacity=".4">
  <linearGradient id="_lgradient_78" x1=".517" x2=".517" y1="0" y2="1">
   <stop offset="0%" style="stop-color:rgb(255,255,255)"/>
   <stop offset="12.5%" stop-opacity=".098" style="stop-color:rgb(255,255,255)"/>
   <stop offset="92.5%" stop-opacity=".098" style="stop-color:rgb(0,0,0)"/>
   <stop offset="100%" stop-opacity=".498" style="stop-color:rgb(0,0,0)"/>
  </linearGradient>
  <path fill="none" stroke="url(#_lgradient_78)" stroke-linecap="round" stroke-linejoin="round" stroke-width="4.077" d="M 165.685 11.947 C 239.74 11.947 250.324 22.504 250.324 96.491 L 250.324 155.742 C 250.324 229.728 239.74 240.285 165.685 240.285 L 90.315 240.285 C 16.26 240.285 5.676 229.728 5.676 155.742 L 5.676 96.491 C 5.676 22.504 16.26 11.947 90.315 11.947 L 165.685 11.947 Z" vector-effect="non-scaling-stroke"/>
 </g>
 <g opacity=".2">
  <path fill="#FFFFFF" d="M 128 11.947 L 128 240.285 L 165.685 240.285 C 239.74 240.285 250.324 229.728 250.324 155.742 L 250.324 96.491 C 250.324 22.504 239.74 11.947 165.685 11.947 L 128 11.947 Z"/>
 </g>
 <g>
  <g>
   <path d="M 49.754 49.978 L 57.351 49.978 C 59.907 49.978 61.983 52.053 61.983 54.609 L 61.983 74.851 C 61.983 77.407 59.907 79.482 57.351 79.482 L 49.754 79.482 C 47.198 79.482 45.123 77.407 45.123 74.851 L 45.123 54.609 C 45.123 52.053 47.198 49.978 49.754 49.978 Z" style="fill:none;stroke:#999999;stroke-width:4.214978112009456;stroke-linecap:round;stroke-linejoin:round"/>
   <path d="M 108.764 49.978 L 116.361 49.978 C 118.917 49.978 120.992 52.053 120.992 54.609 L 120.992 74.851 C 120.992 77.407 118.917 79.482 116.361 79.482 L 108.764 79.482 C 106.208 79.482 104.132 77.407 104.132 74.851 L 104.132 54.609 C 104.132 52.053 106.208 49.978 108.764 49.978 Z" style="fill:none;stroke:#999999;stroke-width:4.214978112009456;stroke-linecap:round;stroke-linejoin:round"/>
   <path d="M 138.269 49.978 L 145.865 49.978 C 148.422 49.978 150.497 52.053 150.497 54.609 L 150.497 74.851 C 150.497 77.407 148.422 79.482 145.865 79.482 L 138.269 79.482 C 135.713 79.482 133.637 77.407 133.637 74.851 L 133.637 54.609 C 133.637 52.053 135.713 49.978 138.269 49.978 Z" style="fill:none;stroke:#999999;stroke-width:4.214978112009456;stroke-linecap:round;stroke-linejoin:round"/>
   <path fill="none" fill-rule="evenodd" stroke="#999999" stroke-linecap="round" stroke-width="4.215" d="M 74.627 49.978 L 83.057 49.978 L 83.057 79.482" vector-effect="non-scaling-stroke"/>
   <path fill="none" fill-rule="evenodd" stroke="#999999" stroke-linecap="round" stroke-linejoin="round" stroke-width="4.215" d="M 74.627 79.482 L 91.487 79.482 L 91.487 71.052" vector-effect="non-scaling-stroke"/>
   <path d="M 49.754 92.127 L 57.351 92.127 C 59.907 92.127 61.983 94.203 61.983 96.759 L 61.983 117.001 C 61.983 119.557 59.907 121.632 57.351 121.632 L 49.754 121.632 C 47.198 121.632 45.123 119.557 45.123 117.001 L 45.123 96.759 C 45.123 94.203 47.198 92.127 49.754 92.127 Z" style="fill:none;stroke:#999999;stroke-width:4.214978112009456;stroke-linecap:round;stroke-linejoin:round"/>
   <path fill="none" fill-rule="evenodd" stroke="#999999" stroke-linecap="round" stroke-width="4.215" d="M 104.132 92.127 L 112.562 92.127 L 112.562 121.632" vector-effect="non-scaling-stroke"/>
   <path fill="none" fill-rule="evenodd" stroke="#999999" stroke-linecap="round" stroke-linejoin="round" stroke-width="4.215" d="M 104.132 121.632 L 120.992 121.632 L 120.992 113.202" vector-effect="non-scaling-stroke"/>
   <path d="M 79.259 92.127 L 86.856 92.127 C 89.412 92.127 91.487 94.203 91.487 96.759 L 91.487 117.001 C 91.487 119.557 89.412 121.632 86.856 121.632 L 79.259 121.632 C 76.703 121.632 74.627 119.557 74.627 117.001 L 74.627 96.759 C 74.627 94.203 76.703 92.127 79.259 92.127 Z" style="fill:none;stroke:#999999;stroke-width:4.214978112009456;stroke-linecap:round;stroke-linejoin:round"/>
   <path d="M 138.269 92.127 L 145.865 92.127 C 148.422 92.127 150.497 94.203 150.497 96.759 L 150.497 117.001 C 150.497 119.557 148.422 121.632 145.865 121.632 L 138.269 121.632 C 135.713 121.632 133.637 119.557 133.637 117.001 L 133.637 96.759 C 133.637 94.203 135.713 92.127 138.269 92.127 Z" style="fill:none;stroke:#999999;stroke-width:4.214978112009456;stroke-linecap:round;stroke-linejoin:round"/>
   <path d="M 79.259 134.277 L 86.856 134.277 C 89.412 134.277 91.487 136.352 91.487 138.909 L 91.487 159.15 C 91.487 161.707 89.412 163.782 86.856 163.782 L 79.259 163.782 C 76.703 163.782 74.627 161.707 74.627 159.15 L 74.627 138.909 C 74.627 136.352 76.703 134.277 79.259 134.277 Z" style="fill:none;stroke:#999999;stroke-width:4.214978112009456;stroke-linecap:round;stroke-linejoin:round"/>
   <path d="M 108.764 134.277 L 116.361 134.277 C 118.917 134.277 120.992 136.352 120.992 138.909 L 120.992 159.15 C 120.992 161.707 118.917 163.782 116.361 163.782 L 108.764 163.782 C 106.208 163.782 104.132 161.707 104.132 159.15 L 104.132 138.909 C 104.132 136.352 106.208 134.277 108.764 134.277 Z" style="fill:none;stroke:#999999;stroke-width:4.214978112009456;stroke-linecap:round;stroke-linejoin:round"/>
   <path d="M 49.754 176.427 L 57.351 176.427 C 59.907 176.427 61.983 178.502 61.983 181.059 L 61.983 201.3 C 61.983 203.856 59.907 205.932 57.351 205.932 L 49.754 205.932 C 47.198 205.932 45.123 203.856 45.123 201.3 L 45.123 181.059 C 45.123 178.502 47.198 176.427 49.754 176.427 Z" style="fill:none;stroke:#999999;stroke-width:4.214978112009456;stroke-linecap:round;stroke-linejoin:round"/>
   <path d="M 138.269 176.427 L 145.865 176.427 C 148.422 176.427 150.497 178.502 150.497 181.059 L 150.497 201.3 C 150.497 203.856 148.422 205.932 145.865 205.932 L 138.269 205.932 C 135.713 205.932 133.637 203.856 133.637 201.3 L 133.637 181.059 C 133.637 178.502 135.713 176.427 138.269 176.427 Z" style="fill:none;stroke:#999999;stroke-width:4.214978112009456;stroke-linecap:round;stroke-linejoin:round"/>
   <path fill="none" fill-rule="evenodd" stroke="#999999" stroke-linecap="round" stroke-width="4.215" d="M 74.627 176.427 L 83.057 176.427 L 83.057 205.932" vector-effect="non-scaling-stroke"/>
   <path fill="none" fill-rule="evenodd" stroke="#999999" stroke-linecap="round" stroke-linejoin="round" stroke-width="4.215" d="M 74.627 205.932 L 91.487 205.932 L 91.487 197.502" vector-effect="non-scaling-stroke"/>
   <path fill="none" fill-rule="evenodd" stroke="#999999" stroke-linecap="round" stroke-width="4.215" d="M 45.123 134.277 L 53.553 134.277 L 53.553 163.782" vector-effect="non-scaling-stroke"/>
   <path fill="none" fill-rule="evenodd" stroke="#999999" stroke-linecap="round" stroke-linejoin="round" stroke-width="4.215" d="M 45.123 163.782 L 61.983 163.782 L 61.983 155.352" vector-effect="non-scaling-stroke"/>
   <path fill="none" fill-rule="evenodd" stroke="#999999" stroke-linecap="round" stroke-width="4.215" d="M 133.637 134.277 L 142.067 134.277 L 142.067 163.782" vector-effect="non-scaling-stroke"/>
   <path fill="none" fill-rule="evenodd" stroke="#999999" stroke-linecap="round" stroke-linejoin="round" stroke-width="4.215" d="M 133.637 163.782 L 150.497 163.782 L 150.497 155.352" vector-effect="non-scaling-stroke"/>
   <path fill="none" fill-rule="evenodd" stroke="#999999" stroke-linecap="round" stroke-width="4.215" d="M 104.132 176.427 L 112.562 176.427 L 112.562 205.932" vector-effect="non-scaling-stroke"/>
   <path fill="none" fill-rule="evenodd" stroke="#999999" stroke-linecap="round" stroke-linejoin="round" stroke-width="4.215" d="M 104.132 205.932 L 120.992 205.932 L 120.992 197.502" vector-effect="non-scaling-stroke"/>
   <path fill="none" fill-rule="evenodd" stroke="#999999" stroke-linecap="round" stroke-width="4.215" d="M 163.142 49.978 L 171.572 49.978 L 171.572 79.482" vector-effect="non-scaling-stroke"/>
   <path fill="none" fill-rule="evenodd" stroke="#999999" stroke-linecap="round" stroke-linejoin="round" stroke-width="4.215" d="M 163.142 79.482 L 180.002 79.482 L 180.002 71.052" vector-effect="non-scaling-stroke"/>
   <path d="M 167.774 92.127 L 175.37 92.127 C 177.927 92.127 180.002 94.203 180.002 96.759 L 180.002 117.001 C 180.002 119.557 177.927 121.632 175.37 121.632 L 167.774 121.632 C 165.217 121.632 163.142 119.557 163.142 117.001 L 163.142 96.759 C 163.142 94.203 165.217 92.127 167.774 92.127 Z" style="fill:none;stroke:#999999;stroke-width:4.214978112009456;stroke-linecap:round;stroke-linejoin:round"/>
   <path d="M 167.774 134.277 L 175.37 134.277 C 177.927 134.277 180.002 136.352 180.002 138.909 L 180.002 159.15 C 180.002 161.707 177.927 163.782 175.37 163.782 L 167.774 163.782 C 165.217 163.782 163.142 161.707 163.142 159.15 L 163.142 138.909 C 163.142 136.352 165.217 134.277 167.774 134.277 Z" style="fill:none;stroke:#999999;stroke-width:4.214978112009456;stroke-linecap:round;stroke-linejoin:round"/>
   <path d="M 167.774 176.427 L 175.37 176.427 C 177.927 176.427 180.002 178.502 180.002 181.059 L 180.002 201.3 C 180.002 203.856 177.927 205.932 175.37 205.932 L 167.774 205.932 C 165.217 205.932 163.142 203.856 163.142 201.3 L 163.142 181.059 C 163.142 178.502 165.217 176.427 167.774 176.427 Z" style="fill:none;stroke:#999999;stroke-width:4.214978112009456;stroke-linecap:round;stroke-linejoin:round"/>
   <path d="M 198.318 49.977 L 205.915 49.977 C 208.471 49.977 210.546 52.052 210.546 54.608 L 210.546 74.85 C 210.546 77.406 208.471 79.482 205.915 79.482 L 198.318 79.482 C 195.762 79.482 193.686 77.406 193.686 74.85 L 193.686 54.608 C 193.686 52.052 195.762 49.977 198.318 49.977 Z" style="fill:none;stroke:#999999;stroke-width:4.214978112009456;stroke-linecap:round;stroke-linejoin:round"/>
   <path fill="none" fill-rule="evenodd" stroke="#999999" stroke-linecap="round" stroke-width="4.215" d="M 194.017 92.127 L 202.447 92.127 L 202.447 121.632" vector-effect="non-scaling-stroke"/>
   <path fill="none" fill-rule="evenodd" stroke="#999999" stroke-linecap="round" stroke-linejoin="round" stroke-width="4.215" d="M 194.017 121.632 L 210.877 121.632 L 210.877 113.202" vector-effect="non-scaling-stroke"/>
   <path d="M 198.318 134.368 L 205.915 134.368 C 208.471 134.368 210.546 136.443 210.546 139 L 210.546 159.241 C 210.546 161.798 208.471 163.873 205.915 163.873 L 198.318 163.873 C 195.762 163.873 193.686 161.798 193.686 159.241 L 193.686 139 C 193.686 136.443 195.762 134.368 198.318 134.368 Z" style="fill:none;stroke:#999999;stroke-width:4.214978112009456;stroke-linecap:round;stroke-linejoin:round"/>
   <path fill="none" fill-rule="evenodd" stroke="#999999" stroke-linecap="round" stroke-width="4.215" d="M 193.798 176.518 L 202.228 176.518 L 202.228 206.023" vector-effect="non-scaling-stroke"/>
   <path fill="none" fill-rule="evenodd" stroke="#999999" stroke-linecap="round" stroke-linejoin="round" stroke-width="4.215" d="M 193.798 206.023 L 210.658 206.023 L 210.658 197.593" vector-effect="non-scaling-stroke"/>
  </g>
  <g>
   <path fill="#FEE1C2" d="M 126.718 184.411 L 74.993 208.549 L 99.131 156.824 L 104.304 151.651 L 131.891 179.238 L 126.718 184.411 Z"/>
   <path fill="#5D5D5D" d="M 82.671 192.089 L 74.993 208.549 L 91.453 200.871 C 91.453 200.871 93.081 199.913 92.227 199.059 C 91.373 198.204 88.802 199.082 88.802 199.082 C 88.802 199.082 90.511 196.48 88.796 194.765 C 87.081 193.05 84.479 194.759 84.479 194.759 C 84.479 194.759 85.338 192.17 84.476 191.308 C 83.614 190.446 82.671 192.089 82.671 192.089 Z"/>
   <linearGradient id="_lgradient_79" x1="0" x2="1" y1="1.22" y2="1.22" gradientTransform="matrix(27.587,27.587,-90.357,90.357,186.04,69.915)" gradientUnits="userSpaceOnUse">
    <stop offset="0%" style="stop-color:rgb(88,132,244)"/>
    <stop offset="27.8%" style="stop-color:rgb(88,132,244)"/>
    <stop offset="27.8%" style="stop-color:rgb(47,95,221)"/>
    <stop offset="70.735%" style="stop-color:rgb(47,95,221)"/>
    <stop offset="70.936%" style="stop-color:rgb(35,77,184)"/>
    <stop offset="100%" style="stop-color:rgb(35,77,184)"/>
   </linearGradient>
   <path fill="url(#_lgradient_79)" d="M 99.131 156.824 C 102.58 153.376 108.614 162.859 103.442 168.031 C 112.063 159.41 124.132 171.48 115.511 180.1 C 120.684 174.928 130.167 180.963 126.718 184.411 L 213.627 97.502 L 186.04 69.915 L 99.131 156.824 Z"/>
  </g>
 </g>
</svg>
